icons/superscript.svg

<svg viewBox="0 0 24 24" fill="currentColor" xmlns="http://www.w3.org/2000/svg">
    <path d="M5.59567 5L10.5 10.9283L15.4043 5H18L11.7978 12.4971L18 19.9943V20H15.4091L10.5 14.0659L5.59092 20H3V19.9943L9.20216 12.4971L3 5H5.59567ZM21.5507 6.5803C21.7042 6.43453 21.8 6.22845 21.8 6C21.8 5.55817 21.4418 5.2 21 5.2C20.5582 5.2 20.2 5.55817 20.2 6C20.2 6.07624 20.2107 6.14999 20.2306 6.21983L19.0765 6.54958C19.0267 6.37497 19 6.1906 19 6C19 4.89543 19.8954 4 21 4C22.1046 4 23 4.89543 23 6C23 6.57273 22.7593 7.08923 22.3735 7.45384L20.7441 9H23V10H19V9L21.5507 6.5803V6.5803Z"/>
</svg>

<svg xmlns="http://www.w3.org/2000/svg" viewBox="0 0 24 24">
    <g>
        <path fill="none" d="M0 0h24v24H0z"/>
        <path d="M5.596 5l4.904 5.928L15.404 5H18l-6.202 7.497L18 19.994V20h-2.59l-4.91-5.934L5.59 20H3v-.006l6.202-7.497L3 5h2.596zM21.55 6.58a.8.8 0 1 0-1.32-.36l-1.155.33A2.001 2.001 0 0 1 21 4a2 2 0 0 1 1.373 3.454L20.744 9H23v1h-4V9l2.55-2.42z"/>
    </g>
</svg>
